X:1
T: Captain Pringle of Vair
C:
R:Strathspey
Q: 128
K:D
M:4/4
L:1/16
|:B2|A3B A3F A3B d3e|fd3 g3f eE3 E3F|A3B A3F A3B d3g|((3f2g2a2) ((3e2f2g2) fd3 d3B|
A3B A3F A3B d3e|fd3 g3f eE3 E3F|A3B A3F A3B d3g|((3f2g2a2) ((3e2f2g2) fd3 d3f1/2g1/2|
a3f fa3 bg3 g3b|a3f gfed ce3 ((3e2f2g2) |af3 fa3 bg3 g3b|a3f gfed Ad3 d3f|
a3f fa3 bg3 g3b|bagf gfed ce3 ((3e2f2g2) |a3f g3e f3d e3c|((3B2c2d2) ((3e2f2g2) fd3 d2:|
